src/images/user1.svg

<svg width="170" height="170" viewBox="0 0 170 170" xmlns="http://www.w3.org/2000/svg"><title>Imported Layers</title><g fill="none" fill-rule="evenodd"><path d="M107.512 118.255c-6.277 3.884-13.918 6.171-22.168 6.171-8.029 0-15.485-2.16-21.665-5.855a51.54 51.54 0 0 0-17.598 13.907c10.969 8.643 24.814 13.8 39.863 13.8 15.05 0 28.894-5.157 39.864-13.8a51.515 51.515 0 0 0-18.296-14.223" fill="#E7EBEB"/><path d="M169.204 85.093c0-46.512-37.84-84.352-84.352-84.352S.5 38.581.5 85.093c0 26.843 12.619 50.78 32.22 66.24l-.03.1 1.974 1.463c12.178 9.029 26.274 14.493 41.192 16.064.288.03.576.057.864.085 1.035.098 2.073.177 3.115.238.343.02.685.044 1.03.061 1.324.061 2.652.101 3.987.101 1.358 0 2.709-.04 4.056-.103.319-.015.635-.04.953-.059a83.21 83.21 0 0 0 3.987-.324c15.709-1.645 30.441-7.588 43.03-17.465l1.934-1.517-.028-.085c18.575-15.485 30.42-38.782 30.42-64.799zm-76.215 76.921c-.189.02-.378.038-.567.056a77.803 77.803 0 0 1-3.036.231c-.287.017-.574.037-.862.051-1.217.057-2.44.093-3.672.093-1.213 0-2.418-.036-3.618-.092-.301-.014-.601-.033-.901-.051a77.613 77.613 0 0 1-2.994-.228c-.196-.019-.392-.035-.587-.055-13.225-1.383-25.46-6.12-35.86-13.33 4.024-11.192 12.11-20.285 22.243-25.815a49.05 49.05 0 0 0 21.717 5.052 49.057 49.057 0 0 0 22.933-5.668 47.728 47.728 0 0 1 22.754 25.201c-10.75 7.897-23.601 13.09-37.55 14.555zM54.242 86.745a37.824 37.824 0 0 0 31.471-16.766 40.03 40.03 0 0 0 22.061 6.647c6.678 0 13.143-1.638 18.936-4.767.346 2.177.531 4.406.531 6.679 0 23.373-19.016 42.388-42.389 42.388-21.166 0-38.758-15.594-41.892-35.896a37.709 37.709 0 0 0 11.282 1.715zm-11.751-9.311c.587-22.812 19.273-41.198 42.205-41.282.503.003 1.004.011 1.503.031h.008c17.556.707 32.822 12.283 38.253 28.91-5.043 2.973-10.762 4.533-16.686 4.533a32.983 32.983 0 0 1-20.866-7.454l-3.314-2.718-2.001 3.791a30.86 30.86 0 0 1-27.351 16.5c-4.091 0-8.034-.776-11.751-2.311zm93.716 65.436a54.696 54.696 0 0 0-21.705-24.862c11.978-9.02 19.739-23.355 19.739-39.47 0-26.653-21.225-48.429-47.658-49.346h-.016c-.57-.02-1.14-.044-1.715-.044-.054 0-.106.004-.16.004-.064 0-.128-.004-.192-.004-15.514 0-29.782 7.107-39.146 19.499-6.471 8.563-9.891 18.778-9.891 29.538 0 .072.003.143.003.215 0 .046-.003.091-.003.138 0 .213.013.423.016.636.004.208.003.418.01.626l.027.83c.007.171.008.344.016.514l.025.749.034.017c1.032 15.212 8.979 28.557 20.716 36.904-9.363 6.04-16.895 14.854-21.204 25.447C18.241 130.061 7.5 108.812 7.5 85.093c0-42.652 34.7-77.352 77.352-77.352s77.352 34.7 77.352 77.352c0 22.956-10.063 43.598-25.997 57.777z" fill="#D6D8D8"/></g></svg>

<?xml version="1.0" encoding="UTF-8" standalone="no"?>
<svg width="170px" height="170px" viewBox="0 0 170 170" version="1.1" xmlns="http://www.w3.org/2000/svg" xmlns:xlink="http://www.w3.org/1999/xlink" xmlns:sketch="http://www.bohemiancoding.com/sketch/ns">
    <!-- Generator: Sketch 3.3.2 (12043) - http://www.bohemiancoding.com/sketch -->
    <title>Imported Layers</title>
    <desc>Created with Sketch.</desc>
    <defs></defs>
    <g id="Page-1" stroke="none" stroke-width="1" fill="none" fill-rule="evenodd" sketch:type="MSPage">
        <g id="Imported-Layers" sketch:type="MSLayerGroup">
            <path d="M107.512,118.255 C101.235,122.139 93.594,124.426 85.344,124.426 C77.315,124.426 69.859,122.266 63.679,118.571 C56.832,121.871 50.827,126.641 46.081,132.478 C57.05,141.121 70.895,146.278 85.944,146.278 C100.994,146.278 114.838,141.121 125.808,132.478 C120.903,126.445 114.647,121.563 107.512,118.255" id="Fill-1" fill="#E7EBEB" sketch:type="MSShapeGroup"></path>
            <path d="M169.204,85.093 C169.204,38.581 131.364,0.741 84.852,0.741 C38.34,0.741 0.5,38.581 0.5,85.093 C0.5,111.936 13.119,135.873 32.72,151.333 L32.69,151.433 L34.664,152.896 C46.842,161.925 60.938,167.389 75.856,168.96 C76.144,168.99 76.432,169.017 76.72,169.045 C77.755,169.143 78.793,169.222 79.835,169.283 C80.178,169.303 80.52,169.327 80.865,169.344 C82.189,169.405 83.517,169.445 84.852,169.445 C86.21,169.445 87.561,169.405 88.908,169.342 C89.227,169.327 89.543,169.302 89.861,169.283 C90.949,169.221 92.032,169.139 93.111,169.035 C93.357,169.011 93.603,168.986 93.848,168.959 C109.557,167.314 124.289,161.371 136.878,151.494 L138.812,149.977 L138.784,149.892 C157.359,134.407 169.204,111.11 169.204,85.093 L169.204,85.093 Z M92.989,162.014 C92.8,162.034 92.611,162.052 92.422,162.07 C91.416,162.168 90.403,162.242 89.386,162.301 C89.099,162.318 88.812,162.338 88.524,162.352 C87.307,162.409 86.084,162.445 84.852,162.445 C83.639,162.445 82.434,162.409 81.234,162.353 C80.933,162.339 80.633,162.32 80.333,162.302 C79.33,162.244 78.331,162.17 77.339,162.074 C77.143,162.055 76.947,162.039 76.752,162.019 C63.527,160.636 51.292,155.899 40.892,148.689 C44.916,137.497 53.002,128.404 63.135,122.874 C69.693,126.101 77.061,127.926 84.852,127.926 C93.127,127.926 100.927,125.871 107.785,122.258 C118.005,127.49 126.208,136.33 130.539,147.459 C119.789,155.356 106.938,160.549 92.989,162.014 L92.989,162.014 Z M54.242,86.745 C66.987,86.745 78.712,80.412 85.713,69.979 C92.219,74.288 99.915,76.626 107.774,76.626 C114.452,76.626 120.917,74.988 126.71,71.859 C127.056,74.036 127.241,76.265 127.241,78.538 C127.241,101.911 108.225,120.926 84.852,120.926 C63.686,120.926 46.094,105.332 42.96,85.03 C46.586,86.162 50.359,86.745 54.242,86.745 L54.242,86.745 Z M42.491,77.434 C43.078,54.622 61.764,36.236 84.696,36.152 C85.199,36.155 85.7,36.163 86.199,36.183 L86.207,36.183 C103.763,36.89 119.029,48.466 124.46,65.093 C119.417,68.066 113.698,69.626 107.774,69.626 C100.179,69.626 92.769,66.979 86.908,62.172 L83.594,59.454 L81.593,63.245 C76.221,73.422 65.74,79.745 54.242,79.745 C50.151,79.745 46.208,78.969 42.491,77.434 L42.491,77.434 Z M136.207,142.87 C131.621,132.355 123.959,123.769 114.502,118.008 C126.48,108.988 134.241,94.653 134.241,78.538 C134.241,51.885 113.016,30.109 86.583,29.192 L86.567,29.192 C85.997,29.172 85.427,29.148 84.852,29.148 C84.798,29.148 84.746,29.152 84.692,29.152 C84.628,29.152 84.564,29.148 84.5,29.148 C68.986,29.148 54.718,36.255 45.354,48.647 C38.883,57.21 35.463,67.425 35.463,78.185 C35.463,78.257 35.466,78.328 35.466,78.4 C35.466,78.446 35.463,78.491 35.463,78.538 C35.463,78.751 35.476,78.961 35.479,79.174 C35.483,79.382 35.482,79.592 35.489,79.8 L35.516,80.63 C35.523,80.801 35.524,80.974 35.532,81.144 L35.557,81.893 L35.591,81.91 C36.623,97.122 44.57,110.467 56.307,118.814 C46.944,124.854 39.412,133.668 35.103,144.261 C18.241,130.061 7.5,108.812 7.5,85.093 C7.5,42.441 42.2,7.741 84.852,7.741 C127.504,7.741 162.204,42.441 162.204,85.093 C162.204,108.049 152.141,128.691 136.207,142.87 L136.207,142.87 Z" id="Fill-2" fill="#D6D8D8" sketch:type="MSShapeGroup"></path>
        </g>
    </g>
</svg>
